; generated by Slic3r 0.9.11-dev on 2013-11-29 at 15:13:17

; layer_height = 0.4
; perimeters = 3
; top_solid_layers = 3
; bottom_solid_layers = 3
; fill_density = 0.4
; perimeter_speed = 30
; infill_speed = 60
; travel_speed = 130
; nozzle_diameter = 0.5
; filament_diameter = 3
; extrusion_multiplier = 1
; perimeters extrusion width = 0.50mm
; infill extrusion width = 0.53mm
; solid infill extrusion width = 0.53mm
; top infill extrusion width = 0.53mm
; first layer extrusion width = 0.70mm

G21 ; set units to millimeters
M107
M104 S200 ; set temperature
G28 ; home all axes
G1 Z5 F5000 ; lift nozzle

M109 S200 ; wait for temperature to be reached
G90 ; use absolute coordinates
G92 E0
M82 ; use absolute distances for extrusion
G1 F1800.000 E-1.00000
G92 E0
G1 Z0.350 F7800.000
G1 X90.290 Y90.290
G1 F1800.000 E1.00000
G1 X91.300 Y89.460 F600.000 E1.04253
G1 X92.450 Y88.850 E1.08489
G1 X93.700 Y88.470 E1.12739
G1 X95.000 Y88.340 E1.16990
G1 X105.000 Y88.340 E1.49525
G1 X106.300 Y88.470 E1.53776
G1 X107.550 Y88.850 E1.58027
G1 X108.700 Y89.460 E1.62262
G1 X109.710 Y90.290 E1.66515
G1 X110.540 Y91.300 E1.70768
G1 X111.150 Y92.450 E1.75004
G1 X111.530 Y93.700 E1.79254
G1 X111.660 Y95.000 E1.83505
G1 X111.660 Y105.000 E2.16040
G1 X111.530 Y106.300 E2.20291
G1 X111.150 Y107.550 E2.24542
G1 X110.540 Y108.700 E2.28777
G1 X109.710 Y109.710 E2.33030
G1 X108.700 Y110.540 E2.37284
G1 X107.550 Y111.150 E2.41519
G1 X106.300 Y111.530 E2.45770
G1 X105.000 Y111.660 E2.50020
G1 X95.000 Y111.660 E2.82555
G1 X93.700 Y111.530 E2.86806
G1 X92.450 Y111.150 E2.91057
G1 X91.300 Y110.540 E2.95292
G1 X90.290 Y109.710 E2.99545
G1 X89.460 Y108.700 E3.03799
G1 X88.850 Y107.550 E3.08034
G1 X88.470 Y106.300 E3.12285
G1 X88.340 Y105.000 E3.16535
G1 X88.340 Y95.000 E3.49071
G1 X88.470 Y93.700 E3.53321
G1 X88.850 Y92.450 E3.57572
G1 X89.460 Y91.300 E3.61807
G1 X90.227 Y90.366 E3.65740
G1 F1800.000 E2.65740
G92 E0
G1 X96.643 Y96.643 F7800.000
G1 F1800.000 E1.00000
G1 X103.357 Y96.643 F600.000 E1.21846
G1 X103.357 Y103.357 E1.43692
G1 X96.643 Y103.357 E1.65538
G1 X96.643 Y96.741 E1.87064
G1 X95.986 Y95.986 F7800.000
G1 X104.014 Y95.986 F600.000 E2.13185
G1 X104.014 Y104.014 E2.39307
G1 X95.986 Y104.014 E2.65429
G1 X95.986 Y96.084 E2.91230
G1 X95.329 Y95.329 F7800.000
G1 X104.671 Y95.329 F600.000 E3.21627
G1 X104.671 Y104.671 E3.52025
G1 X95.329 Y104.671 E3.82422
G1 X95.329 Y95.427 E4.12499
G1 X95.898 Y95.657 F7800.000
G1 X102.847 Y97.085
G1 X102.915 Y97.153 F833.910 E4.12822
G1 X102.915 Y98.113 E4.16051
G1 X101.887 Y97.085 E4.20940
G1 X100.926 Y97.085 E4.24169
G1 X102.915 Y99.074 E4.33624
G1 X102.915 Y100.034 E4.36853
G1 X99.966 Y97.085 E4.50874
G1 X99.006 Y97.085 E4.54103
G1 X102.915 Y100.994 E4.72691
G1 X102.915 Y101.955 E4.75920
G1 X98.045 Y97.085 E4.99074
G1 X97.119 Y97.119 E5.02191
G1 X102.881 Y102.881 E5.29589
G1 X101.955 Y102.915 E5.32706
G1 X97.085 Y98.045 E5.55860
G1 X97.085 Y99.006 E5.59089
G1 X100.994 Y102.915 E5.77677
G1 X100.034 Y102.915 E5.80905
G1 X97.085 Y99.966 E5.94927
G1 X97.085 Y100.926 E5.98156
G1 X99.074 Y102.915 E6.07611
G1 X98.113 Y102.915 E6.10840
G1 X97.085 Y101.887 E6.15729
G1 X97.085 Y102.847 E6.18958
G1 X97.153 Y102.915 E6.19281
M106 S255
G1 F1800.000 E5.19281
G92 E0
G1 Z0.750 F7800.000
G1 X96.250 Y103.750
G1 F1800.000 E1.00000
G1 X96.250 Y96.250 F600.000 E1.21221
G1 X103.750 Y96.250 E1.42441
G1 X103.750 Y103.750 E1.63662
G1 X96.325 Y103.750 E1.84670
G1 X95.750 Y104.250 F7800.000
G1 X95.750 Y95.750 F600.000 E2.08721
G1 X104.250 Y95.750 E2.32771
G1 X104.250 Y104.250 E2.56821
G1 X95.825 Y104.250 E2.80659
G1 X95.250 Y104.750 F7800.000
G1 X95.250 Y95.250 F600.000 E3.07538
G1 X104.750 Y95.250 E3.34418
G1 X104.750 Y104.750 E3.61297
G1 X95.325 Y104.750 E3.87964
G1 X95.500 Y104.317 F7800.000
G1 X96.590 Y96.643
G1 X96.643 Y96.590 F609.006 E3.88190
G1 X97.395 Y96.590 E3.90452
G1 X96.590 Y97.395 E3.93876
G1 X96.590 Y98.147 E3.96138
G1 X98.147 Y96.590 E4.02761
G1 X98.899 Y96.590 E4.05023
G1 X96.590 Y98.899 E4.14844
G1 X96.590 Y99.651 E4.17106
G1 X99.651 Y96.590 E4.30125
G1 X100.402 Y96.590 E4.32387
G1 X96.590 Y100.402 E4.48605
G1 X96.590 Y101.154 E4.50867
G1 X101.154 Y96.590 E4.70283
G1 X101.906 Y96.590 E4.72545
G1 X96.590 Y101.906 E4.95160
G1 X96.590 Y102.658 E4.97421
G1 X102.658 Y96.590 E5.23235
G1 X103.383 Y96.617 E5.25418
G1 X96.617 Y103.383 E5.54204
G1 X97.342 Y103.410 E5.56387
G1 X103.410 Y97.342 E5.82200
G1 X103.410 Y98.094 E5.84462
G1 X98.094 Y103.410 E6.07077
G1 X98.846 Y103.410 E6.09338
G1 X103.410 Y98.846 E6.28755
G1 X103.410 Y99.598 E6.31017
G1 X99.598 Y103.410 E6.47235
G1 X100.349 Y103.410 E6.49497
G1 X103.410 Y100.349 E6.62516
G1 X103.410 Y101.101 E6.64778
G1 X101.101 Y103.410 E6.74599
G1 X101.853 Y103.410 E6.76861
G1 X103.410 Y101.853 E6.83484
G1 X103.410 Y102.605 E6.85746
G1 X102.605 Y103.410 E6.89170
G1 X103.357 Y103.410 E6.91432
G1 X103.410 Y103.357 E6.91658
G1 F1800.000 E5.91658
G92 E0
G1 Z1.150 F7800.000
G1 X103.750 Y103.750
G1 F1800.000 E1.00000
G1 X96.250 Y103.750 F600.000 E1.21221
G1 X96.250 Y96.250 E1.42441
G1 X103.750 Y96.250 E1.63662
G1 X103.750 Y103.675 E1.84670
G1 X104.250 Y104.250 F7800.000
G1 X95.750 Y104.250 F600.000 E2.08721
G1 X95.750 Y95.750 E2.32771
G1 X104.250 Y95.750 E2.56821
G1 X104.250 Y104.175 E2.80659
G1 X104.750 Y104.750 F7800.000
G1 X95.250 Y104.750 F600.000 E3.07538
G1 X95.250 Y95.250 E3.34418
G1 X104.750 Y95.250 E3.61297
G1 X104.750 Y104.675 E3.87964
G1 X104.317 Y104.500 F7800.000
G1 X96.643 Y103.410
G1 X96.590 Y103.357 F609.006 E3.88191
G1 X96.590 Y102.605 E3.90452
G1 X97.395 Y103.410 E3.93877
G1 X98.147 Y103.410 E3.96138
G1 X96.590 Y101.853 E4.02761
G1 X96.590 Y101.101 E4.05023
G1 X98.899 Y103.410 E4.14844
G1 X99.651 Y103.410 E4.17106
G1 X96.590 Y100.349 E4.30126
G1 X96.590 Y99.598 E4.32387
G1 X100.402 Y103.410 E4.48606
G1 X101.154 Y103.410 E4.50867
G1 X96.590 Y98.846 E4.70284
G1 X96.590 Y98.094 E4.72546
G1 X101.906 Y103.410 E4.95161
G1 X102.658 Y103.410 E4.97422
G1 X96.590 Y97.342 E5.23236
G1 X96.617 Y96.617 E5.25419
G1 X103.383 Y103.383 E5.54204
G1 X103.410 Y102.658 E5.56388
G1 X97.342 Y96.590 E5.82201
G1 X98.094 Y96.590 E5.84463
G1 X103.410 Y101.906 E6.07078
G1 X103.410 Y101.154 E6.09339
G1 X98.846 Y96.590 E6.28756
G1 X99.598 Y96.590 E6.31017
G1 X103.410 Y100.402 E6.47235
G1 X103.410 Y99.651 E6.49497
G1 X100.349 Y96.590 E6.62517
G1 X101.101 Y96.590 E6.64778
G1 X103.410 Y98.899 E6.74600
G1 X103.410 Y98.147 E6.76861
G1 X101.853 Y96.590 E6.83484
G1 X102.605 Y96.590 E6.85746
G1 X103.410 Y97.395 E6.89170
G1 X103.410 Y96.643 E6.91432
G1 X103.357 Y96.590 E6.91658
G1 F1800.000 E5.91658
G92 E0
G1 Z1.550 F7800.000
G1 X103.750 Y96.250
G1 F1800.000 E1.00000
G1 X103.750 Y103.750 F600.000 E1.21221
G1 X96.250 Y103.750 E1.42441
G1 X96.250 Y96.250 E1.63662
G1 X103.675 Y96.250 E1.84670
G1 X104.250 Y95.750 F7800.000
G1 X104.250 Y104.250 F600.000 E2.08721
G1 X95.750 Y104.250 E2.32771
G1 X95.750 Y95.750 E2.56821
G1 X104.175 Y95.750 E2.80659
G1 X104.750 Y95.250 F7800.000
G1 X104.750 Y104.750 F600.000 E3.07538
G1 X95.250 Y104.750 E3.34418
G1 X95.250 Y95.250 E3.61297
G1 X104.675 Y95.250 E3.87964
G1 X104.500 Y95.683 F7800.000
G1 X103.410 Y103.357
G1 X103.357 Y103.410 F609.006 E3.88191
G1 X102.605 Y103.410 E3.90452
G1 X103.410 Y102.605 E3.93877
G1 X103.410 Y101.853 E3.96138
G1 X101.853 Y103.410 E4.02761
G1 X101.101 Y103.410 E4.05023
G1 X103.410 Y101.101 E4.14844
G1 X103.410 Y100.349 E4.17106
G1 X100.349 Y103.410 E4.30126
G1 X99.598 Y103.410 E4.32387
G1 X103.410 Y99.598 E4.48605
G1 X103.410 Y98.846 E4.50867
G1 X98.846 Y103.410 E4.70283
G1 X98.094 Y103.410 E4.72545
G1 X103.410 Y98.094 E4.95160
G1 X103.410 Y97.342 E4.97422
G1 X97.342 Y103.410 E5.23235
G1 X96.617 Y103.383 E5.25418
G1 X103.383 Y96.617 E5.54203
G1 X102.658 Y96.590 E5.56387
G1 X96.590 Y102.658 E5.82200
G1 X96.590 Y101.906 E5.84461
G1 X101.906 Y96.590 E6.07076
G1 X101.154 Y96.590 E6.09338
G1 X96.590 Y101.154 E6.28754
G1 X96.590 Y100.402 E6.31016
G1 X100.402 Y96.590 E6.47234
G1 X99.651 Y96.590 E6.49495
G1 X96.590 Y99.651 E6.62515
G1 X96.590 Y98.899 E6.64777
G1 X98.899 Y96.590 E6.74598
G1 X98.147 Y96.590 E6.76860
G1 X96.590 Y98.147 E6.83482
G1 X96.590 Y97.395 E6.85744
G1 X97.395 Y96.590 E6.89168
G1 X96.643 Y96.590 E6.91430
G1 X96.590 Y96.643 E6.91656
G1 F1800.000 E5.91656
G92 E0
G1 Z1.950 F7800.000
G1 X96.250 Y96.250
G1 F1800.000 E1.00000
G1 X103.750 Y96.250 F600.000 E1.21221
G1 X103.750 Y103.750 E1.42441
G1 X96.250 Y103.750 E1.63662
G1 X96.250 Y96.325 E1.84670
G1 X95.750 Y95.750 F7800.000
G1 X104.250 Y95.750 F600.000 E2.08721
G1 X104.250 Y104.250 E2.32771
G1 X95.750 Y104.250 E2.56821
G1 X95.750 Y95.825 E2.80659
G1 X95.250 Y95.250 F7800.000
G1 X104.750 Y95.250 F600.000 E3.07538
G1 X104.750 Y104.750 E3.34418
G1 X95.250 Y104.750 E3.61297
G1 X95.250 Y95.325 E3.87964
G1 X95.683 Y95.500 F7800.000
G1 X103.357 Y96.590
G1 X103.410 Y96.643 F609.006 E3.88190
G1 X103.410 Y97.395 E3.90452
G1 X102.605 Y96.590 E3.93876
G1 X101.853 Y96.590 E3.96138
G1 X103.410 Y98.147 E4.02761
G1 X103.410 Y98.899 E4.05023
G1 X101.101 Y96.590 E4.14844
G1 X100.349 Y96.590 E4.17105
G1 X103.410 Y99.651 E4.30125
G1 X103.410 Y100.402 E4.32387
G1 X99.598 Y96.590 E4.48605
G1 X98.846 Y96.590 E4.50866
G1 X103.410 Y101.154 E4.70283
G1 X103.410 Y101.906 E4.72544
G1 X98.094 Y96.590 E4.95159
G1 X97.342 Y96.590 E4.97421
G1 X103.410 Y102.658 E5.23234
G1 X103.383 Y103.383 E5.25417
G1 X96.617 Y96.617 E5.54203
G1 X96.590 Y97.342 E5.56386
G1 X102.658 Y103.410 E5.82199
G1 X101.906 Y103.410 E5.84461
G1 X96.590 Y98.094 E6.07075
G1 X96.590 Y98.846 E6.09337
G1 X101.154 Y103.410 E6.28754
G1 X100.402 Y103.410 E6.31015
G1 X96.590 Y99.598 E6.47233
G1 X96.590 Y100.349 E6.49495
G1 X99.651 Y103.410 E6.62515
G1 X98.899 Y103.410 E6.64776
G1 X96.590 Y101.101 E6.74598
G1 X96.590 Y101.853 E6.76859
G1 X98.147 Y103.410 E6.83482
G1 X97.395 Y103.410 E6.85744
G1 X96.590 Y102.605 E6.89168
G1 X96.590 Y103.357 E6.91430
G1 X96.643 Y103.410 E6.91656
G1 F1800.000 E5.91656
G92 E0
G1 Z2.350 F7800.000
G1 X96.250 Y103.750
G1 F1800.000 E1.00000
G1 X96.250 Y96.250 F600.000 E1.21221
G1 X103.750 Y96.250 E1.42441
G1 X103.750 Y103.750 E1.63662
G1 X96.325 Y103.750 E1.84670
G1 X95.750 Y104.250 F7800.000
G1 X95.750 Y95.750 F600.000 E2.08721
G1 X104.250 Y95.750 E2.32771
G1 X104.250 Y104.250 E2.56821
G1 X95.825 Y104.250 E2.80659
G1 X95.250 Y104.750 F7800.000
G1 X95.250 Y95.250 F600.000 E3.07538
G1 X104.750 Y95.250 E3.34418
G1 X104.750 Y104.750 E3.61297
G1 X95.325 Y104.750 E3.87964
G1 X95.500 Y104.317 F7800.000
G1 X96.590 Y96.643
G1 X96.643 Y96.590 F609.006 E3.88190
G1 X97.395 Y96.590 E3.90452
G1 X96.590 Y97.395 E3.93876
G1 X96.590 Y98.147 E3.96138
G1 X98.147 Y96.590 E4.02761
G1 X98.899 Y96.590 E4.05022
G1 X96.590 Y98.899 E4.14844
G1 X96.590 Y99.651 E4.17105
G1 X99.651 Y96.590 E4.30125
G1 X100.402 Y96.590 E4.32387
G1 X96.590 Y100.402 E4.48605
G1 X96.590 Y101.154 E4.50866
G1 X101.154 Y96.590 E4.70283
G1 X101.906 Y96.590 E4.72544
G1 X96.590 Y101.906 E4.95159
G1 X96.590 Y102.658 E4.97421
G1 X102.658 Y96.590 E5.23234
G1 X103.383 Y96.617 E5.25417
G1 X96.617 Y103.383 E5.54202
G1 X97.342 Y103.410 E5.56386
G1 X103.410 Y97.342 E5.82199
G1 X103.410 Y98.094 E5.84461
G1 X98.094 Y103.410 E6.07075
G1 X98.846 Y103.410 E6.09337
G1 X103.410 Y98.846 E6.28754
G1 X103.410 Y99.598 E6.31015
G1 X99.598 Y103.410 E6.47233
G1 X100.349 Y103.410 E6.49495
G1 X103.410 Y100.349 E6.62515
G1 X103.410 Y101.101 E6.64776
G1 X101.101 Y103.410 E6.74598
G1 X101.853 Y103.410 E6.76859
G1 X103.410 Y101.853 E6.83482
G1 X103.410 Y102.605 E6.85744
G1 X102.605 Y103.410 E6.89168
G1 X103.357 Y103.410 E6.91430
G1 X103.410 Y103.357 E6.91656
G1 F1800.000 E5.91656
G92 E0
G1 Z2.750 F7800.000
G1 X103.750 Y103.750
G1 F1800.000 E1.00000
G1 X96.250 Y103.750 F600.000 E1.21221
G1 X96.250 Y96.250 E1.42441
G1 X103.750 Y96.250 E1.63662
G1 X103.750 Y103.675 E1.84670
G1 X104.250 Y104.250 F7800.000
G1 X95.750 Y104.250 F600.000 E2.08721
G1 X95.750 Y95.750 E2.32771
G1 X104.250 Y95.750 E2.56821
G1 X104.250 Y104.175 E2.80659
G1 X104.750 Y104.750 F7800.000
G1 X95.250 Y104.750 F600.000 E3.07538
G1 X95.250 Y95.250 E3.34418
G1 X104.750 Y95.250 E3.61297
G1 X104.750 Y104.675 E3.87964
G1 X104.317 Y104.500 F7800.000
G1 X96.643 Y103.410
G1 X96.590 Y103.357 F609.006 E3.88191
G1 X96.590 Y102.605 E3.90452
G1 X97.395 Y103.410 E3.93877
G1 X98.147 Y103.410 E3.96138
G1 X96.590 Y101.853 E4.02761
G1 X96.590 Y101.101 E4.05023
G1 X98.899 Y103.410 E4.14844
G1 X99.651 Y103.410 E4.17106
G1 X96.590 Y100.349 E4.30126
G1 X96.590 Y99.598 E4.32387
G1 X100.402 Y103.410 E4.48605
G1 X101.154 Y103.410 E4.50867
G1 X96.590 Y98.846 E4.70283
G1 X96.590 Y98.094 E4.72545
G1 X101.906 Y103.410 E4.95160
G1 X102.658 Y103.410 E4.97422
G1 X96.590 Y97.342 E5.23235
G1 X96.617 Y96.617 E5.25418
G1 X103.383 Y103.383 E5.54203
G1 X103.410 Y102.658 E5.56387
G1 X97.342 Y96.590 E5.82200
G1 X98.094 Y96.590 E5.84461
G1 X103.410 Y101.906 E6.07076
G1 X103.410 Y101.154 E6.09338
G1 X98.846 Y96.590 E6.28754
G1 X99.598 Y96.590 E6.31016
G1 X103.410 Y100.402 E6.47234
G1 X103.410 Y99.651 E6.49495
G1 X100.349 Y96.590 E6.62515
G1 X101.101 Y96.590 E6.64777
G1 X103.410 Y98.899 E6.74598
G1 X103.410 Y98.147 E6.76860
G1 X101.853 Y96.590 E6.83482
G1 X102.605 Y96.590 E6.85744
G1 X103.410 Y97.395 E6.89168
G1 X103.410 Y96.643 E6.91430
G1 X103.357 Y96.590 E6.91656
G1 F1800.000 E5.91656
G92 E0
G1 Z3.150 F7800.000
G1 X103.750 Y96.250
G1 F1800.000 E1.00000
G1 X103.750 Y103.750 F600.000 E1.21221
G1 X96.250 Y103.750 E1.42441
G1 X96.250 Y96.250 E1.63662
G1 X103.675 Y96.250 E1.84670
G1 X104.250 Y95.750 F7800.000
G1 X104.250 Y104.250 F600.000 E2.08721
G1 X95.750 Y104.250 E2.32771
G1 X95.750 Y95.750 E2.56821
G1 X104.175 Y95.750 E2.80659
G1 X104.750 Y95.250 F7800.000
G1 X104.750 Y104.750 F600.000 E3.07538
G1 X95.250 Y104.750 E3.34418
G1 X95.250 Y95.250 E3.61297
G1 X104.675 Y95.250 E3.87964
G1 X104.500 Y95.683 F7800.000
G1 X103.410 Y103.357
G1 X103.357 Y103.410 F609.006 E3.88191
G1 X102.605 Y103.410 E3.90452
G1 X103.410 Y102.605 E3.93877
G1 X103.410 Y101.853 E3.96138
G1 X101.853 Y103.410 E4.02761
G1 X101.101 Y103.410 E4.05023
G1 X103.410 Y101.101 E4.14844
G1 X103.410 Y100.349 E4.17106
G1 X100.349 Y103.410 E4.30126
G1 X99.598 Y103.410 E4.32387
G1 X103.410 Y99.598 E4.48605
G1 X103.410 Y98.846 E4.50867
G1 X98.846 Y103.410 E4.70283
G1 X98.094 Y103.410 E4.72545
G1 X103.410 Y98.094 E4.95160
G1 X103.410 Y97.342 E4.97422
G1 X97.342 Y103.410 E5.23235
G1 X96.617 Y103.383 E5.25418
G1 X103.383 Y96.617 E5.54203
G1 X102.658 Y96.590 E5.56387
G1 X96.590 Y102.658 E5.82200
G1 X96.590 Y101.906 E5.84461
G1 X101.906 Y96.590 E6.07076
G1 X101.154 Y96.590 E6.09338
G1 X96.590 Y101.154 E6.28754
G1 X96.590 Y100.402 E6.31016
G1 X100.402 Y96.590 E6.47234
G1 X99.651 Y96.590 E6.49495
G1 X96.590 Y99.651 E6.62515
G1 X96.590 Y98.899 E6.64777
G1 X98.899 Y96.590 E6.74598
G1 X98.147 Y96.590 E6.76860
G1 X96.590 Y98.147 E6.83482
G1 X96.590 Y97.395 E6.85744
G1 X97.395 Y96.590 E6.89168
G1 X96.643 Y96.590 E6.91430
G1 X96.590 Y96.643 E6.91656
G1 F1800.000 E5.91656
G92 E0
G1 Z3.550 F7800.000
G1 X96.250 Y96.250
G1 F1800.000 E1.00000
G1 X103.750 Y96.250 F600.000 E1.21221
G1 X103.750 Y103.750 E1.42441
G1 X96.250 Y103.750 E1.63662
G1 X96.250 Y96.325 E1.84670
G1 X95.750 Y95.750 F7800.000
G1 X104.250 Y95.750 F600.000 E2.08721
G1 X104.250 Y104.250 E2.32771
G1 X95.750 Y104.250 E2.56821
G1 X95.750 Y95.825 E2.80659
G1 X95.250 Y95.250 F7800.000
G1 X104.750 Y95.250 F600.000 E3.07538
G1 X104.750 Y104.750 E3.34418
G1 X95.250 Y104.750 E3.61297
G1 X95.250 Y95.325 E3.87964
G1 X95.683 Y95.500 F7800.000
G1 X103.357 Y96.590
G1 X103.410 Y96.643 F609.006 E3.88190
G1 X103.410 Y97.395 E3.90452
G1 X102.605 Y96.590 E3.93876
G1 X101.853 Y96.590 E3.96138
G1 X103.410 Y98.147 E4.02761
G1 X103.410 Y98.899 E4.05023
G1 X101.101 Y96.590 E4.14844
G1 X100.349 Y96.590 E4.17105
G1 X103.410 Y99.651 E4.30125
G1 X103.410 Y100.402 E4.32387
G1 X99.598 Y96.590 E4.48605
G1 X98.846 Y96.590 E4.50866
G1 X103.410 Y101.154 E4.70283
G1 X103.410 Y101.906 E4.72544
G1 X98.094 Y96.590 E4.95159
G1 X97.342 Y96.590 E4.97421
G1 X103.410 Y102.658 E5.23234
G1 X103.383 Y103.383 E5.25417
G1 X96.617 Y96.617 E5.54203
G1 X96.590 Y97.342 E5.56386
G1 X102.658 Y103.410 E5.82199
