; generated by Slic3r 1.0.0RC1 on 2013-12-15 at 23:50:00

; layer_height = 0.4
; perimeters = 3
; top_solid_layers = 3
; bottom_solid_layers = 3
; fill_density = 0.4
; perimeter_speed = 30
; infill_speed = 60
; travel_speed = 130
; nozzle_diameter = 0.5
; filament_diameter = 3
; extrusion_multiplier = 1
; perimeters extrusion width = 0.50mm
; infill extrusion width = 0.53mm
; solid infill extrusion width = 0.53mm
; top infill extrusion width = 0.53mm
; first layer extrusion width = 1.00mm

G21 ; set units to millimeters
M107
M104 S205 ; set temperature
G28 ; home all axes
G1 Z5 F5000 ; lift nozzle
M109 S205 ; wait for temperature to be reached
G90 ; use absolute coordinates
G1 F1800.000
G1 Z0.500 F7800.000
G1 X-25.000 Y-31.890 F7800.000
G1 X25.000 Y-31.890 F540.000
G1 X26.340 Y-31.760
G1 X27.640 Y-31.370
G1 X28.830 Y-30.730
G1 X29.870 Y-29.870
G1 X30.730 Y-28.830
G1 X31.370 Y-27.640
G1 X31.760 Y-26.340
G1 X31.890 Y-25.000
G1 X31.890 Y25.000
G1 X31.760 Y26.340
G1 X31.370 Y27.640
G1 X30.730 Y28.830
G1 X29.870 Y29.870
G1 X28.830 Y30.730
G1 X27.640 Y31.370
G1 X26.340 Y31.760
G1 X25.000 Y31.890
G1 X-25.000 Y31.890
G1 X-26.340 Y31.760
G1 X-27.640 Y31.370
G1 X-28.830 Y30.730
G1 X-29.870 Y29.870
G1 X-30.730 Y28.830
G1 X-31.370 Y27.640
G1 X-31.760 Y26.340
G1 X-31.890 Y25.000
G1 X-31.890 Y-25.000
G1 X-31.760 Y-26.340
G1 X-31.370 Y-27.640
G1 X-30.730 Y-28.830
G1 X-29.870 Y-29.870
G1 X-28.830 Y-30.730
G1 X-27.640 Y-31.370
G1 X-26.340 Y-31.760
G1 X-25.133 Y-31.877
G1 F1800.000
G1 X-22.715 Y-22.715 F7800.000
G1 X22.715 Y-22.715 F540.000
G1 X22.715 Y22.715
G1 X-22.715 Y22.715
G1 X-22.715 Y-22.581
G1 X-23.607 Y-23.607 F7800.000
G1 X23.607 Y-23.607 F540.000
G1 X23.607 Y23.607
G1 X-23.607 Y23.607
G1 X-23.607 Y-23.473
G1 X-24.500 Y-24.500 F7800.000
G1 X24.500 Y-24.500 F378.000
G1 X24.500 Y24.500
G1 X-24.500 Y24.500
G1 X-24.500 Y-24.366
G1 X-23.727 Y-24.054 F7800.000
G1 X22.113 Y-22.022 F7800.000
G1 X22.022 Y-22.113 F1080.000
G1 X20.743 Y-22.113
G1 X22.113 Y-20.743
G1 X22.113 Y-19.464
G1 X19.464 Y-22.113
G1 X18.184 Y-22.113
G1 X22.113 Y-18.184
G1 X22.113 Y-16.905
G1 X16.905 Y-22.113
G1 X15.626 Y-22.113
G1 X22.113 Y-15.626
G1 X22.113 Y-14.347
G1 X14.347 Y-22.113
G1 X13.067 Y-22.113
G1 X22.113 Y-13.067
G1 X22.113 Y-11.788
G1 X11.788 Y-22.113
G1 X10.509 Y-22.113
G1 X22.113 Y-10.509
G1 X22.113 Y-9.229
G1 X9.229 Y-22.113
G1 X7.950 Y-22.113
G1 X22.113 Y-7.950
G1 X22.113 Y-6.671
G1 X6.671 Y-22.113
G1 X5.392 Y-22.113
G1 X22.113 Y-5.392
G1 X22.113 Y-4.112
G1 X4.112 Y-22.113
G1 X2.833 Y-22.113
G1 X22.113 Y-2.833
G1 X22.113 Y-1.554
G1 X1.554 Y-22.113
G1 X0.275 Y-22.113
G1 X22.113 Y-0.275
G1 X22.113 Y1.005
G1 X-1.005 Y-22.113
G1 X-2.284 Y-22.113
G1 X22.113 Y2.284
G1 X22.113 Y3.563
G1 X-3.563 Y-22.113
G1 X-4.842 Y-22.113
G1 X22.113 Y4.842
G1 X22.113 Y6.122
G1 X-6.122 Y-22.113
G1 X-7.401 Y-22.113
G1 X22.113 Y7.401
G1 X22.113 Y8.680
G1 X-8.680 Y-22.113
G1 X-9.960 Y-22.113
G1 X22.113 Y9.960
G1 X22.113 Y11.239
G1 X-11.239 Y-22.113
G1 X-12.518 Y-22.113
G1 X22.113 Y12.518
G1 X22.113 Y13.797
G1 X-13.797 Y-22.113
G1 X-15.077 Y-22.113
G1 X22.113 Y15.077
G1 X22.113 Y16.356
G1 X-16.356 Y-22.113
G1 X-17.635 Y-22.113
G1 X22.113 Y17.635
G1 X22.113 Y18.914
G1 X-18.914 Y-22.113
G1 X-20.194 Y-22.113
G1 X22.113 Y20.194
G1 X22.113 Y21.473
G1 X-21.473 Y-22.113
G1 X-22.113 Y-21.473
G1 X21.473 Y22.113
G1 X20.194 Y22.113
G1 X-22.113 Y-20.194
G1 X-22.113 Y-18.914
G1 X18.914 Y22.113
G1 X17.635 Y22.113
G1 X-22.113 Y-17.635
G1 X-22.113 Y-16.356
G1 X16.356 Y22.113
G1 X15.077 Y22.113
G1 X-22.113 Y-15.077
G1 X-22.113 Y-13.797
G1 X13.797 Y22.113
G1 X12.518 Y22.113
G1 X-22.113 Y-12.518
G1 X-22.113 Y-11.239
G1 X11.239 Y22.113
G1 X9.960 Y22.113
G1 X-22.113 Y-9.960
G1 X-22.113 Y-8.680
G1 X8.680 Y22.113
G1 X7.401 Y22.113
G1 X-22.113 Y-7.401
G1 X-22.113 Y-6.122
G1 X6.122 Y22.113
G1 X4.842 Y22.113
G1 X-22.113 Y-4.842
G1 X-22.113 Y-3.563
G1 X3.563 Y22.113
G1 X2.284 Y22.113
G1 X-22.113 Y-2.284
G1 X-22.113 Y-1.005
G1 X1.005 Y22.113
G1 X-0.275 Y22.113
G1 X-22.113 Y0.275
G1 X-22.113 Y1.554
G1 X-1.554 Y22.113
G1 X-2.833 Y22.113
G1 X-22.113 Y2.833
G1 X-22.113 Y4.112
G1 X-4.112 Y22.113
G1 X-5.392 Y22.113
G1 X-22.113 Y5.392
G1 X-22.113 Y6.671
G1 X-6.671 Y22.113
G1 X-7.950 Y22.113
G1 X-22.113 Y7.950
G1 X-22.113 Y9.229
G1 X-9.229 Y22.113
G1 X-10.509 Y22.113
G1 X-22.113 Y10.509
G1 X-22.113 Y11.788
G1 X-11.788 Y22.113
G1 X-13.067 Y22.113
G1 X-22.113 Y13.067
G1 X-22.113 Y14.347
G1 X-14.347 Y22.113
G1 X-15.626 Y22.113
G1 X-22.113 Y15.626
G1 X-22.113 Y16.905
G1 X-16.905 Y22.113
G1 X-18.184 Y22.113
G1 X-22.113 Y18.184
G1 X-22.113 Y19.464
G1 X-19.464 Y22.113
G1 X-20.743 Y22.113
G1 X-22.113 Y20.743
G1 X-22.113 Y22.022
G1 X-22.022 Y22.113
M104 S200 ; set temperature
G1 F1800.000
G1 Z0.900 F7800.000
G1 X-26.243 Y28.000 F7800.000
G1 X-23.750 Y23.750 F7800.000
G1 X-23.750 Y-23.750 F1800
G1 X23.750 Y-23.750
G1 X23.750 Y23.750
G1 X-23.675 Y23.750
G1 X-24.250 Y24.250 F7800.000
G1 X-24.250 Y-24.250 F1800
G1 X24.250 Y-24.250
G1 X24.250 Y24.250
G1 X-24.175 Y24.250
G1 X-24.750 Y24.750 F7800.000
G1 X-24.750 Y-24.750 F1260
G1 X24.750 Y-24.750
G1 X24.750 Y24.750
G1 X-24.675 Y24.750
G1 X-24.500 Y24.317 F7800.000
G1 F1800.000
G1 X-24.500 Y24.500 F7800.000
G1 X-23.409 Y-22.621 F7800.000
G1 X-22.621 Y-23.409 F3000
G1 X-21.884 Y-23.409
G1 X-23.409 Y-21.884
G1 X-23.409 Y-21.148
G1 X-21.148 Y-23.409
G1 X-20.411 Y-23.409
G1 X-23.409 Y-20.411
G1 X-23.409 Y-19.675
G1 X-19.675 Y-23.409
G1 X-18.938 Y-23.409
G1 X-23.409 Y-18.938
G1 X-23.409 Y-18.202
G1 X-18.202 Y-23.409
G1 X-17.465 Y-23.409
G1 X-23.409 Y-17.465
G1 X-23.409 Y-16.729
G1 X-16.729 Y-23.409
G1 X-15.992 Y-23.409
G1 X-23.409 Y-15.992
G1 X-23.409 Y-15.256
G1 X-15.256 Y-23.409
G1 X-14.520 Y-23.409
G1 X-23.409 Y-14.520
G1 X-23.409 Y-13.783
G1 X-13.783 Y-23.409
G1 X-13.047 Y-23.409
G1 X-23.409 Y-13.047
G1 X-23.409 Y-12.310
G1 X-12.310 Y-23.409
G1 X-11.574 Y-23.409
G1 X-23.409 Y-11.574
G1 X-23.409 Y-10.837
G1 X-10.837 Y-23.409
G1 X-10.101 Y-23.409
G1 X-23.409 Y-10.101
G1 X-23.409 Y-9.364
G1 X-9.364 Y-23.409
G1 X-8.628 Y-23.409
G1 X-23.409 Y-8.628
G1 X-23.409 Y-7.891
G1 X-7.891 Y-23.409
G1 X-7.155 Y-23.409
G1 X-23.409 Y-7.155
G1 X-23.409 Y-6.418
G1 X-6.418 Y-23.409
G1 X-5.682 Y-23.409
G1 X-23.409 Y-5.682
G1 X-23.409 Y-4.945
G1 X-4.945 Y-23.409
G1 X-4.209 Y-23.409
G1 X-23.409 Y-4.209
G1 X-23.409 Y-3.472
G1 X-3.472 Y-23.409
G1 X-2.736 Y-23.409
G1 X-23.409 Y-2.736
G1 X-23.409 Y-1.999
G1 X-1.999 Y-23.409
G1 X-1.263 Y-23.409
G1 X-23.409 Y-1.263
G1 X-23.409 Y-0.526
G1 X-0.526 Y-23.409
G1 X0.210 Y-23.409
G1 X-23.409 Y0.210
G1 X-23.409 Y0.947
G1 X0.947 Y-23.409
G1 X1.683 Y-23.409
G1 X-23.409 Y1.683
G1 X-23.409 Y2.419
G1 X2.419 Y-23.409
G1 X3.156 Y-23.409
G1 X-23.409 Y3.156
G1 X-23.409 Y3.892
G1 X3.892 Y-23.409
G1 X4.629 Y-23.409
G1 X-23.409 Y4.629
G1 X-23.409 Y5.365
G1 X5.365 Y-23.409
G1 X6.102 Y-23.409
G1 X-23.409 Y6.102
G1 X-23.409 Y6.838
G1 X6.838 Y-23.409
G1 X7.575 Y-23.409
G1 X-23.409 Y7.575
G1 X-23.409 Y8.311
G1 X8.311 Y-23.409
G1 X9.048 Y-23.409
G1 X-23.409 Y9.048
G1 X-23.409 Y9.784
G1 X9.784 Y-23.409
G1 X10.521 Y-23.409
G1 X-23.409 Y10.521
G1 X-23.409 Y11.257
G1 X11.257 Y-23.409
G1 X11.994 Y-23.409
G1 X-23.409 Y11.994
G1 X-23.409 Y12.730
G1 X12.730 Y-23.409
G1 X13.467 Y-23.409
G1 X-23.409 Y13.467
G1 X-23.409 Y14.203
G1 X14.203 Y-23.409
G1 X14.940 Y-23.409
G1 X-23.409 Y14.940
G1 X-23.409 Y15.676
G1 X15.676 Y-23.409
G1 X16.413 Y-23.409
G1 X-23.409 Y16.413
G1 X-23.409 Y17.149
G1 X17.149 Y-23.409
G1 X17.885 Y-23.409
G1 X-23.409 Y17.885
G1 X-23.409 Y18.622
G1 X18.622 Y-23.409
G1 X19.358 Y-23.409
G1 X-23.409 Y19.358
G1 X-23.409 Y20.095
G1 X20.095 Y-23.409
G1 X20.831 Y-23.409
G1 X-23.409 Y20.831
G1 X-23.409 Y21.568
G1 X21.568 Y-23.409
G1 X22.304 Y-23.409
G1 X-23.409 Y22.304
G1 X-23.409 Y23.041
G1 X23.041 Y-23.409
G1 X23.409 Y-23.041
G1 X-23.041 Y23.409
G1 X-22.305 Y23.409
G1 X23.409 Y-22.305
G1 X23.409 Y-21.568
G1 X-21.568 Y23.409
G1 X-20.832 Y23.409
G1 X23.409 Y-20.832
G1 X23.409 Y-20.095
G1 X-20.095 Y23.409
G1 X-19.359 Y23.409
G1 X23.409 Y-19.359
G1 X23.409 Y-18.622
G1 X-18.622 Y23.409
G1 X-17.886 Y23.409
G1 X23.409 Y-17.886
G1 X23.409 Y-17.149
G1 X-17.149 Y23.409
G1 X-16.413 Y23.409
G1 X23.409 Y-16.413
G1 X23.409 Y-15.676
G1 X-15.676 Y23.409
G1 X-14.940 Y23.409
G1 X23.409 Y-14.940
G1 X23.409 Y-14.203
G1 X-14.203 Y23.409
G1 X-13.467 Y23.409
G1 X23.409 Y-13.467
G1 X23.409 Y-12.730
G1 X-12.730 Y23.409
G1 X-11.994 Y23.409
G1 X23.409 Y-11.994
G1 X23.409 Y-11.257
G1 X-11.257 Y23.409
G1 X-10.521 Y23.409
G1 X23.409 Y-10.521
G1 X23.409 Y-9.784
G1 X-9.784 Y23.409
G1 X-9.048 Y23.409
G1 X23.409 Y-9.048
G1 X23.409 Y-8.311
G1 X-8.311 Y23.409
G1 X-7.575 Y23.409
G1 X23.409 Y-7.575
G1 X23.409 Y-6.838
G1 X-6.838 Y23.409
G1 X-6.102 Y23.409
G1 X23.409 Y-6.102
G1 X23.409 Y-5.366
G1 X-5.366 Y23.409
G1 X-4.629 Y23.409
G1 X23.409 Y-4.629
G1 X23.409 Y-3.893
G1 X-3.893 Y23.409
G1 X-3.156 Y23.409
G1 X23.409 Y-3.156
G1 X23.409 Y-2.420
G1 X-2.420 Y23.409
G1 X-1.683 Y23.409
G1 X23.409 Y-1.683
G1 X23.409 Y-0.947
G1 X-0.947 Y23.409
G1 X-0.210 Y23.409
G1 X23.409 Y-0.210
G1 X23.409 Y0.526
G1 X0.526 Y23.409
G1 X1.263 Y23.409
G1 X23.409 Y1.263
G1 X23.409 Y1.999
G1 X1.999 Y23.409
G1 X2.736 Y23.409
G1 X23.409 Y2.736
G1 X23.409 Y3.472
G1 X3.472 Y23.409
G1 X4.209 Y23.409
G1 X23.409 Y4.209
G1 X23.409 Y4.945
G1 X4.945 Y23.409
G1 X5.682 Y23.409
G1 X23.409 Y5.682
G1 X23.409 Y6.418
G1 X6.418 Y23.409
G1 X7.155 Y23.409
G1 X23.409 Y7.155
G1 X23.409 Y7.891
G1 X7.891 Y23.409
G1 X8.628 Y23.409
G1 X23.409 Y8.628
G1 X23.409 Y9.364
G1 X9.364 Y23.409
G1 X10.100 Y23.409
G1 X23.409 Y10.100
G1 X23.409 Y10.837
G1 X10.837 Y23.409
G1 X11.573 Y23.409
G1 X23.409 Y11.573
G1 X23.409 Y12.310
G1 X12.310 Y23.409
G1 X13.046 Y23.409
G1 X23.409 Y13.046
G1 X23.409 Y13.783
G1 X13.783 Y23.409
G1 X14.519 Y23.409
G1 X23.409 Y14.519
G1 X23.409 Y15.256
G1 X15.256 Y23.409
G1 X15.992 Y23.409
G1 X23.409 Y15.992
G1 X23.409 Y16.729
G1 X16.729 Y23.409
G1 X17.465 Y23.409
G1 X23.409 Y17.465
G1 X23.409 Y18.202
G1 X18.202 Y23.409
G1 X18.938 Y23.409
G1 X23.409 Y18.938
G1 X23.409 Y19.675
G1 X19.675 Y23.409
G1 X20.411 Y23.409
G1 X23.409 Y20.411
G1 X23.409 Y21.148
G1 X21.148 Y23.409
G1 X21.884 Y23.409
G1 X23.409 Y21.884
G1 X23.409 Y22.621
G1 X22.621 Y23.409
G1 X23.357 Y23.409
G1 X23.409 Y23.357
G1 F1800.000
M104 S0 ; turn off temperature
G28 X0  ; home X axis
M84     ; disable motors
; filament used = 0.0mm (0.0cm3)
