; generated by Slic3r 0.9.11-dev on 2013-11-30 at 22:15:10

; layer_height = 0.4
; perimeters = 3
; top_solid_layers = 3
; bottom_solid_layers = 3
; fill_density = 0.4
; perimeter_speed = 30
; infill_speed = 60
; travel_speed = 130
; nozzle_diameter = 0.5
; filament_diameter = 3
; extrusion_multiplier = 1
; perimeters extrusion width = 0.50mm
; infill extrusion width = 0.53mm
; solid infill extrusion width = 0.53mm
; top infill extrusion width = 0.53mm
; first layer extrusion width = 0.70mm

G21 ; set units to millimeters
M107
M104 S200 ; set temperature
G28 ; home all axes
G1 Z5 F5000 ; lift nozzle

M109 S200 ; wait for temperature to be reached
G90 ; use absolute coordinates
G92 E0
M82 ; use absolute distances for extrusion
G1 F1800.000 E-1.00000
G92 E0
G1 Z0.350 F7800.000
G1 X35.290 Y35.290
G1 F1800.000 E1.00000
G1 X36.300 Y34.460 F540.000 E1.04253
G1 X37.450 Y33.850 E1.08489
G1 X38.700 Y33.470 E1.12739
G1 X40.000 Y33.340 E1.16990
G1 X60.000 Y33.340 E1.82060
G1 X61.300 Y33.470 E1.86311
G1 X62.550 Y33.850 E1.90562
G1 X63.700 Y34.460 E1.94797
G1 X64.710 Y35.290 E1.99050
G1 X65.540 Y36.300 E2.03304
G1 X66.150 Y37.450 E2.07539
G1 X66.530 Y38.700 E2.11790
G1 X66.660 Y40.000 E2.16040
G1 X66.660 Y60.000 E2.81111
G1 X66.530 Y61.300 E2.85361
G1 X66.150 Y62.550 E2.89612
G1 X65.540 Y63.700 E2.93847
G1 X64.710 Y64.710 E2.98101
G1 X63.700 Y65.540 E3.02354
G1 X62.550 Y66.150 E3.06589
G1 X61.300 Y66.530 E3.10840
G1 X60.000 Y66.660 E3.15091
G1 X40.000 Y66.660 E3.80161
G1 X38.700 Y66.530 E3.84412
G1 X37.450 Y66.150 E3.88662
G1 X36.300 Y65.540 E3.92898
G1 X35.290 Y64.710 E3.97151
G1 X34.460 Y63.700 E4.01404
G1 X33.850 Y62.550 E4.05640
G1 X33.470 Y61.300 E4.09890
G1 X33.340 Y60.000 E4.14141
G1 X33.340 Y40.000 E4.79211
G1 X33.470 Y38.700 E4.83462
G1 X33.850 Y37.450 E4.87713
G1 X34.460 Y36.300 E4.91948
G1 X35.227 Y35.366 E4.95881
G1 F1800.000 E3.95881
G92 E0
G1 X41.643 Y41.643 F7800.000
G1 F1800.000 E1.00000
G1 X58.357 Y41.643 F540.000 E1.54381
G1 X58.357 Y58.357 E2.08763
G1 X41.643 Y58.357 E2.63144
G1 X41.643 Y41.741 E3.17205
G1 X40.986 Y40.986 F7800.000
G1 X59.014 Y40.986 F540.000 E3.75862
G1 X59.014 Y59.014 E4.34519
G1 X40.986 Y59.014 E4.93175
G1 X40.986 Y41.084 E5.51512
G1 X40.329 Y40.329 F7800.000
G1 X59.671 Y40.329 F378.000 E6.14444
G1 X59.671 Y59.671 E6.77377
G1 X40.329 Y59.671 E7.40310
G1 X40.329 Y40.427 E8.02922
G1 X40.898 Y40.657 F7800.000
G1 X57.915 Y42.153
G1 X57.847 Y42.085 F1080.000 E8.03241
G1 X56.892 Y42.085 E8.06436
G1 X57.915 Y43.108 E8.11274
G1 X57.915 Y44.063 E8.14469
G1 X55.937 Y42.085 E8.23825
G1 X54.981 Y42.085 E8.27020
G1 X57.915 Y45.019 E8.40894
G1 X57.915 Y45.974 E8.44089
G1 X54.026 Y42.085 E8.62482
G1 X53.071 Y42.085 E8.65677
G1 X57.915 Y46.929 E8.88589
G1 X57.915 Y47.884 E8.91784
G1 X52.116 Y42.085 E9.19213
G1 X51.160 Y42.085 E9.22408
G1 X57.915 Y48.840 E9.54356
G1 X57.915 Y49.795 E9.57551
G1 X50.205 Y42.085 E9.94018
G1 X49.250 Y42.085 E9.97213
G1 X57.915 Y50.750 E10.38198
G1 X57.915 Y51.705 E10.41393
G1 X48.295 Y42.085 E10.86896
G1 X47.339 Y42.085 E10.90091
G1 X57.915 Y52.661 E11.40113
G1 X57.915 Y53.616 E11.43308
G1 X46.384 Y42.085 E11.97848
G1 X45.429 Y42.085 E12.01043
G1 X57.915 Y54.571 E12.60102
G1 X57.915 Y55.527 E12.63297
G1 X44.473 Y42.085 E13.26874
G1 X43.518 Y42.085 E13.30069
G1 X57.915 Y56.482 E13.98164
G1 X57.915 Y57.437 E14.01359
G1 X42.563 Y42.085 E14.73973
G1 X42.085 Y42.563 E14.76232
G1 X57.437 Y57.915 E15.48846
G1 X56.482 Y57.915 E15.52041
G1 X42.085 Y43.518 E16.20136
G1 X42.085 Y44.473 E16.23331
G1 X55.527 Y57.915 E16.86908
G1 X54.571 Y57.915 E16.90103
G1 X42.085 Y45.429 E17.49162
G1 X42.085 Y46.384 E17.52357
G1 X53.616 Y57.915 E18.06897
G1 X52.661 Y57.915 E18.10092
G1 X42.085 Y47.339 E18.60114
G1 X42.085 Y48.294 E18.63309
G1 X51.705 Y57.915 E19.08813
G1 X50.750 Y57.915 E19.12008
G1 X42.085 Y49.250 E19.52993
G1 X42.085 Y50.205 E19.56188
G1 X49.795 Y57.915 E19.92654
G1 X48.840 Y57.915 E19.95849
G1 X42.085 Y51.160 E20.27798
G1 X42.085 Y52.116 E20.30993
G1 X47.884 Y57.915 E20.58422
G1 X46.929 Y57.915 E20.61617
G1 X42.085 Y53.071 E20.84529
G1 X42.085 Y54.026 E20.87724
G1 X45.974 Y57.915 E21.06117
G1 X45.019 Y57.915 E21.09312
G1 X42.085 Y54.981 E21.23187
G1 X42.085 Y55.937 E21.26382
G1 X44.063 Y57.915 E21.35738
G1 X43.108 Y57.915 E21.38933
G1 X42.085 Y56.892 E21.43771
G1 X42.085 Y57.847 E21.46966
G1 X42.153 Y57.915 E21.47285
M106 S255
G1 F1800.000 E20.47285
G92 E0
G1 Z0.750 F7800.000
G1 X41.250 Y58.750
G1 F1800.000 E1.00000
G1 X41.250 Y41.250 F1080.318 E1.49515
G1 X58.750 Y41.250 E1.99030
G1 X58.750 Y58.750 E2.48545
G1 X41.325 Y58.750 E2.97847
G1 X40.750 Y59.250 F7800.000
G1 X40.750 Y40.750 F1080.318 E3.50192
G1 X59.250 Y40.750 E4.02536
G1 X59.250 Y59.250 E4.54880
G1 X40.825 Y59.250 E5.07012
G1 X40.250 Y59.750 F7800.000
G1 X40.250 Y40.250 F756.222 E5.62186
G1 X59.750 Y40.250 E6.17360
G1 X59.750 Y59.750 E6.72533
G1 X40.325 Y59.750 E7.27495
G1 X40.500 Y59.317 F7800.000
G1 X41.643 Y41.591
G1 X41.591 Y41.643 F2160.636 E7.27717
G1 X41.591 Y42.388 E7.29939
G1 X42.388 Y41.591 E7.33303
G1 X43.134 Y41.591 E7.35525
G1 X41.591 Y43.134 E7.42031
G1 X41.591 Y43.879 E7.44253
G1 X43.879 Y41.591 E7.53901
G1 X44.624 Y41.591 E7.56123
G1 X41.591 Y44.624 E7.68914
G1 X41.591 Y45.369 E7.71136
G1 X45.369 Y41.591 E7.87069
G1 X46.114 Y41.591 E7.89291
G1 X41.591 Y46.114 E8.08366
G1 X41.591 Y46.859 E8.10588
G1 X46.859 Y41.591 E8.32805
G1 X47.605 Y41.591 E8.35027
G1 X41.591 Y47.605 E8.60386
G1 X41.591 Y48.350 E8.62608
G1 X48.350 Y41.591 E8.91110
G1 X49.095 Y41.591 E8.93332
G1 X41.591 Y49.095 E9.24976
G1 X41.591 Y49.840 E9.27198
G1 X49.840 Y41.591 E9.61984
G1 X50.585 Y41.591 E9.64206
G1 X41.591 Y50.585 E10.02134
G1 X41.591 Y51.330 E10.04356
G1 X51.330 Y41.591 E10.45426
G1 X52.076 Y41.591 E10.47648
G1 X41.591 Y52.076 E10.91861
G1 X41.591 Y52.821 E10.94083
G1 X52.821 Y41.591 E11.41438
G1 X53.566 Y41.591 E11.43660
G1 X41.591 Y53.566 E11.94157
G1 X41.591 Y54.311 E11.96379
G1 X54.311 Y41.591 E12.50018
G1 X55.056 Y41.591 E12.52240
G1 X41.591 Y55.056 E13.09021
G1 X41.591 Y55.801 E13.11243
G1 X55.801 Y41.591 E13.71167
G1 X56.547 Y41.591 E13.73389
G1 X41.591 Y56.547 E14.36455
G1 X41.591 Y57.292 E14.38677
G1 X57.292 Y41.591 E15.04885
G1 X58.037 Y41.591 E15.07107
G1 X41.591 Y58.037 E15.76457
G1 X41.963 Y58.409 E15.78028
G1 X58.409 Y41.963 E16.47379
G1 X58.409 Y42.708 E16.49600
G1 X42.708 Y58.409 E17.15809
G1 X43.453 Y58.409 E17.18031
G1 X58.409 Y43.453 E17.81097
G1 X58.409 Y44.199 E17.83319
G1 X44.199 Y58.409 E18.43243
G1 X44.944 Y58.409 E18.45465
G1 X58.409 Y44.944 E19.02246
G1 X58.409 Y45.689 E19.04468
G1 X45.689 Y58.409 E19.58108
G1 X46.434 Y58.409 E19.60330
G1 X58.409 Y46.434 E20.10827
G1 X58.409 Y47.179 E20.13049
G1 X47.179 Y58.409 E20.60404
G1 X47.924 Y58.409 E20.62626
G1 X58.409 Y47.924 E21.06839
G1 X58.409 Y48.670 E21.09061
G1 X48.670 Y58.409 E21.50132
G1 X49.415 Y58.409 E21.52353
G1 X58.409 Y49.415 E21.90282
G1 X58.409 Y50.160 E21.92504
G1 X50.160 Y58.409 E22.27290
G1 X50.905 Y58.409 E22.29512
G1 X58.409 Y50.905 E22.61156
G1 X58.409 Y51.650 E22.63378
G1 X51.650 Y58.409 E22.91880
G1 X52.395 Y58.409 E22.94102
G1 X58.409 Y52.395 E23.19462
G1 X58.409 Y53.141 E23.21684
G1 X53.141 Y58.409 E23.43901
G1 X53.886 Y58.409 E23.46123
G1 X58.409 Y53.886 E23.65199
G1 X58.409 Y54.631 E23.67420
G1 X54.631 Y58.409 E23.83354
G1 X55.376 Y58.409 E23.85575
G1 X58.409 Y55.376 E23.98366
G1 X58.409 Y56.121 E24.00588
G1 X56.121 Y58.409 E24.10237
G1 X56.866 Y58.409 E24.12459
G1 X58.409 Y56.866 E24.18966
G1 X58.409 Y57.612 E24.21187
G1 X57.612 Y58.409 E24.24552
G1 X58.357 Y58.409 E24.26774
G1 X58.409 Y58.357 E24.26996
G1 F1800.000 E23.26996
G92 E0
G1 Z1.150 F7800.000
G1 X58.750 Y58.750
G1 F1800.000 E1.00000
G1 X41.250 Y58.750 F1080.318 E1.49515
G1 X41.250 Y41.250 E1.99030
G1 X58.750 Y41.250 E2.48545
G1 X58.750 Y58.675 E2.97847
G1 X59.250 Y59.250 F7800.000
G1 X40.750 Y59.250 F1080.318 E3.50192
G1 X40.750 Y40.750 E4.02536
G1 X59.250 Y40.750 E4.54880
G1 X59.250 Y59.175 E5.07012
G1 X59.750 Y59.750 F7800.000
G1 X40.250 Y59.750 F756.222 E5.62186
G1 X40.250 Y40.250 E6.17360
G1 X59.750 Y40.250 E6.72533
G1 X59.750 Y59.675 E7.27495
G1 X59.317 Y59.500 F7800.000
G1 X41.643 Y58.409
G1 X41.591 Y58.357 F2160.636 E7.27717
G1 X41.591 Y57.612 E7.29939
G1 X42.388 Y58.409 E7.33303
G1 X43.134 Y58.409 E7.35525
G1 X41.591 Y56.866 E7.42032
G1 X41.591 Y56.121 E7.44254
G1 X43.879 Y58.409 E7.53902
G1 X44.624 Y58.409 E7.56124
G1 X41.591 Y55.376 E7.68915
G1 X41.591 Y54.631 E7.71137
G1 X45.369 Y58.409 E7.87070
G1 X46.114 Y58.409 E7.89292
G1 X41.591 Y53.886 E8.08368
G1 X41.591 Y53.141 E8.10589
G1 X46.859 Y58.409 E8.32807
G1 X47.605 Y58.409 E8.35029
G1 X41.591 Y52.395 E8.60389
G1 X41.591 Y51.650 E8.62611
G1 X48.350 Y58.409 E8.91113
G1 X49.095 Y58.409 E8.93334
G1 X41.591 Y50.905 E9.24979
G1 X41.591 Y50.160 E9.27201
G1 X49.840 Y58.409 E9.61987
G1 X50.585 Y58.409 E9.64209
G1 X41.591 Y49.415 E10.02137
G1 X41.591 Y48.670 E10.04359
G1 X51.330 Y58.409 E10.45430
G1 X52.076 Y58.409 E10.47652
G1 X41.591 Y47.924 E10.91865
G1 X41.591 Y47.179 E10.94087
G1 X52.821 Y58.409 E11.41442
G1 X53.566 Y58.409 E11.43664
G1 X41.591 Y46.434 E11.94161
G1 X41.591 Y45.689 E11.96383
G1 X54.311 Y58.409 E12.50023
G1 X55.056 Y58.409 E12.52244
G1 X41.591 Y44.944 E13.09026
G1 X41.591 Y44.199 E13.11248
G1 X55.801 Y58.409 E13.71172
G1 X56.547 Y58.409 E13.73394
G1 X41.591 Y43.453 E14.36460
G1 X41.591 Y42.708 E14.38682
G1 X57.292 Y58.409 E15.04890
G1 X58.037 Y58.409 E15.07112
G1 X41.591 Y41.963 E15.76463
G1 X41.963 Y41.591 E15.78034
G1 X58.409 Y58.037 E16.47384
G1 X58.409 Y57.292 E16.49606
G1 X42.708 Y41.591 E17.15814
G1 X43.453 Y41.591 E17.18036
G1 X58.409 Y56.547 E17.81102
G1 X58.409 Y55.801 E17.83324
G1 X44.199 Y41.591 E18.43248
G1 X44.944 Y41.591 E18.45469
G1 X58.409 Y55.056 E19.02251
G1 X58.409 Y54.311 E19.04473
G1 X45.689 Y41.591 E19.58112
G1 X46.434 Y41.591 E19.60334
G1 X58.409 Y53.566 E20.10831
G1 X58.409 Y52.821 E20.13053
G1 X47.179 Y41.591 E20.60408
G1 X47.924 Y41.591 E20.62630
G1 X58.409 Y52.076 E21.06843
G1 X58.409 Y51.330 E21.09064
G1 X48.670 Y41.591 E21.50135
G1 X49.415 Y41.591 E21.52357
G1 X58.409 Y50.585 E21.90285
G1 X58.409 Y49.840 E21.92507
G1 X50.160 Y41.591 E22.27293
G1 X50.905 Y41.591 E22.29515
G1 X58.409 Y49.095 E22.61159
G1 X58.409 Y48.350 E22.63381
G1 X51.650 Y41.591 E22.91883
G1 X52.395 Y41.591 E22.94104
G1 X58.409 Y47.605 E23.19464
G1 X58.409 Y46.859 E23.21686
G1 X53.141 Y41.591 E23.43903
G1 X53.886 Y41.591 E23.46125
G1 X58.409 Y46.114 E23.65200
G1 X58.409 Y45.369 E23.67422
G1 X54.631 Y41.591 E23.83355
G1 X55.376 Y41.591 E23.85577
G1 X58.409 Y44.624 E23.98368
G1 X58.409 Y43.879 E24.00589
G1 X56.121 Y41.591 E24.10238
G1 X56.866 Y41.591 E24.12460
G1 X58.409 Y43.134 E24.18966
G1 X58.409 Y42.388 E24.21188
G1 X57.612 Y41.591 E24.24552
G1 X58.357 Y41.591 E24.26774
G1 X58.409 Y41.643 E24.26996
G1 F1800.000 E23.26996
G92 E0
G1 Z1.550 F7800.000
G1 X58.750 Y41.250
G1 F1800.000 E1.00000
G1 X58.750 Y58.750 F794.231 E1.49515
G1 X41.250 Y58.750 E1.99030
G1 X41.250 Y41.250 E2.48545
G1 X58.675 Y41.250 E2.97847
G1 X59.250 Y40.750 F7800.000
G1 X59.250 Y59.250 F794.231 E3.50192
G1 X40.750 Y59.250 E4.02536
G1 X40.750 Y40.750 E4.54880
G1 X59.175 Y40.750 E5.07012
G1 X59.750 Y40.250 F7800.000
G1 X59.750 Y59.750 F600.000 E5.62186
G1 X40.250 Y59.750 E6.17360
G1 X40.250 Y40.250 E6.72533
G1 X59.675 Y40.250 E7.27495
G1 X59.500 Y40.683 F7800.000
G1 X58.383 Y42.417
G1 X58.293 Y42.326 F1588.463 E7.27871
G1 X57.423 Y42.559 E7.30518
G1 X56.481 Y41.617 E7.34437
G1 X54.644 Y41.617 E7.39839
G1 X54.914 Y41.887 E7.40961
G1 X55.783 Y41.654 E7.43608
G1 X57.056 Y42.927 E7.48901
G1 X56.823 Y43.796 E7.51548
G1 X58.096 Y45.069 E7.56841
G1 X58.383 Y44.992 E7.57716
G1 X58.383 Y47.193 E7.64190
G1 X57.495 Y46.306 E7.67882
G1 X57.728 Y45.436 E7.70528
G1 X56.455 Y44.164 E7.75821
G1 X55.586 Y44.396 E7.78468
G1 X54.313 Y43.124 E7.83761
G1 X54.546 Y42.254 E7.86408
G1 X53.909 Y41.617 E7.89058
G1 X52.027 Y41.617 E7.94591
G1 X51.804 Y42.451 E7.97131
G1 X53.076 Y43.724 E8.02424
G1 X53.946 Y43.491 E8.05071
G1 X55.219 Y44.764 E8.10364
G1 X54.986 Y45.633 E8.13010
G1 X56.258 Y46.906 E8.18304
G1 X57.128 Y46.673 E8.20950
G1 X58.383 Y47.928 E8.26170
G1 X58.383 Y48.012 E8.26415
G1 X58.168 Y48.815 E8.28862
G1 X58.383 Y49.031 E8.29757
G1 X58.383 Y49.766 E8.31918
G1 X57.800 Y49.183 E8.34341
G1 X56.931 Y49.416 E8.36988
G1 X55.658 Y48.143 E8.42281
G1 X55.891 Y47.274 E8.44928
G1 X54.618 Y46.001 E8.50221
G1 X53.749 Y46.234 E8.52867
G1 X52.476 Y44.961 E8.58161
G1 X52.709 Y44.091 E8.60807
G1 X51.436 Y42.819 E8.66100
G1 X50.567 Y43.052 E8.68747
G1 X49.294 Y41.779 E8.74040
G1 X49.337 Y41.617 E8.74533
G1 X47.295 Y41.617 E8.80538
G1 X48.057 Y42.379 E8.83708
G1 X48.926 Y42.146 E8.86354
G1 X50.199 Y43.419 E8.91647
G1 X49.966 Y44.288 E8.94294
G1 X51.239 Y45.561 E8.99587
G1 X52.109 Y45.328 E9.02234
G1 X53.381 Y46.601 E9.07527
G1 X53.148 Y47.470 E9.10173
G1 X54.421 Y48.743 E9.15467
G1 X55.291 Y48.510 E9.18113
G1 X56.564 Y49.783 E9.23406
G1 X56.331 Y50.653 E9.26053
G1 X57.603 Y51.925 E9.31346
G1 X58.383 Y51.716 E9.33720
G1 X58.383 Y54.406 F7800.000
G1 X58.276 Y54.435 F1588.463 E9.34046
G1 X57.003 Y53.162 E9.39339
G1 X57.236 Y52.293 E9.41986
G1 X55.963 Y51.020 E9.47279
G1 X55.094 Y51.253 E9.49926
G1 X53.821 Y49.980 E9.55219
G1 X54.054 Y49.111 E9.57865
G1 X52.781 Y47.838 E9.63158
G1 X51.912 Y48.071 E9.65805
G1 X50.639 Y46.798 E9.71098
G1 X50.872 Y45.929 E9.73745
G1 X49.599 Y44.656 E9.79038
G1 X48.730 Y44.889 E9.81684
G1 X47.457 Y43.616 E9.86978
G1 X47.690 Y42.747 E9.89624
G1 X46.560 Y41.617 E9.94322
G1 X45.882 Y41.617 E9.96315
G1 X45.547 Y41.707 E9.97334
G1 X45.458 Y41.617 E9.97707
G1 X44.723 Y41.617 E9.99868
G1 X45.180 Y42.074 E10.01769
G1 X44.947 Y42.943 E10.04416
G1 X46.220 Y44.216 E10.09709
G1 X47.089 Y43.983 E10.12355
G1 X48.362 Y45.256 E10.17649
G1 X48.129 Y46.126 E10.20295
G1 X49.402 Y47.398 E10.25588
G1 X50.271 Y47.165 E10.28235
G1 X51.544 Y48.438 E10.33528
G1 X51.311 Y49.308 E10.36175
G1 X52.584 Y50.580 E10.41468
G1 X53.453 Y50.348 E10.44114
G1 X54.726 Y51.620 E10.49408
G1 X54.493 Y52.490 E10.52054
G1 X55.766 Y53.763 E10.57347
G1 X56.636 Y53.530 E10.59994
G1 X57.908 Y54.802 E10.65287
G1 X57.675 Y55.672 E10.67934
G1 X58.383 Y56.379 E10.70876
G1 X58.383 Y57.114 E10.73037
G1 X57.308 Y56.039 E10.77508
G1 X56.439 Y56.272 E10.80154
G1 X55.166 Y54.999 E10.85447
G1 X55.399 Y54.130 E10.88094
G1 X54.126 Y52.857 E10.93387
G1 X53.257 Y53.090 E10.96034
G1 X51.984 Y51.817 E11.01327
G1 X52.217 Y50.948 E11.03974
G1 X50.944 Y49.675 E11.09267
G1 X50.074 Y49.908 E11.11913
G1 X48.802 Y48.635 E11.17206
G1 X49.035 Y47.766 E11.19853
G1 X47.762 Y46.493 E11.25146
G1 X46.892 Y46.726 E11.27793
G1 X45.620 Y45.453 E11.33086
G1 X45.852 Y44.584 E11.35733
G1 X44.580 Y43.311 E11.41026
G1 X43.710 Y43.544 E11.43672
G1 X42.437 Y42.271 E11.48965
G1 X42.613 Y41.617 E11.50957
G1 X41.617 Y42.760 E11.55414
G1 X42.070 Y42.638 E11.56793
G1 X43.343 Y43.911 E11.62086
G1 X43.110 Y44.781 E11.64733
G1 X44.383 Y46.053 E11.70026
G1 X45.252 Y45.821 E11.72673
G1 X46.525 Y47.093 E11.77966
G1 X46.292 Y47.963 E11.80613
G1 X47.565 Y49.236 E11.85906
G1 X48.434 Y49.003 E11.88552
G1 X49.707 Y50.275 E11.93845
G1 X49.474 Y51.145 E11.96492
G1 X50.747 Y52.418 E12.01785
G1 X51.616 Y52.185 E12.04432
G1 X52.889 Y53.458 E12.09725
G1 X52.656 Y54.327 E12.12371
G1 X53.929 Y55.600 E12.17665
G1 X54.798 Y55.367 E12.20311
G1 X56.071 Y56.640 E12.25604
G1 X55.838 Y57.509 E12.28251
G1 X56.712 Y58.383 E12.31886
G1 X55.978 Y58.383 E12.34047
G1 X55.471 Y57.876 E12.36154
G1 X54.601 Y58.109 E12.38800
G1 X53.329 Y56.837 E12.44093
G1 X53.562 Y55.967 E12.46740
G1 X52.289 Y54.694 E12.52033
G1 X51.419 Y54.927 E12.54680
G1 X50.147 Y53.654 E12.59973
G1 X50.380 Y52.785 E12.62619
G1 X49.107 Y51.512 E12.67913
G1 X48.237 Y51.745 E12.70559
G1 X46.964 Y50.472 E12.75852
G1 X47.197 Y49.603 E12.78499
G1 X45.925 Y48.330 E12.83792
G1 X45.055 Y48.563 E12.86439
G1 X43.782 Y47.290 E12.91732
G1 X44.015 Y46.421 E12.94378
G1 X42.742 Y45.148 E12.99672
G1 X41.873 Y45.381 E13.02318
G1 X41.617 Y45.125 E13.03383
G1 X41.617 Y46.962 E13.08786
G1 X42.546 Y47.891 E13.12648
G1 X43.415 Y47.658 E13.15294
G1 X44.688 Y48.931 E13.20587
G1 X44.455 Y49.800 E13.23234
